X:1
T:University College, 77.77
T:Henry John Gauntlett, 1848
T:University College, 77.77
T:Public Domain
C:Henry John Gauntlett, 1848
Z:Public Domain
%%score ( 1 2 ) ( 3 4 )
L:1/8
M:4/4
K:F
V:1 treble 
V:2 treble 
V:3 bass 
V:4 bass 
V:1
 [FA]2 F2 [Fd]2 [Fc]2 | [GB]2 [FA]2 [EG]4 | [FA]2 F2 [Ac]2 [Gc]2 | [Fc]2 [F=B]2 [Ec]4 | %4
 [FA]2 [EG]2 F2 [Fd]2 | [Fc]2 (FE) [FA]4 | [EA]2 [FA]2 [Ec]2 [FA]2 | [FA]2 [EG]2 F4 |] %8
V:2
 x2 F2 x4 | x8 | x2 F2 x4 | x8 | x4 F2 x2 | x2 B2 x4 | x8 | x4 F4 |] %8
V:3
 [F,C]2 [F,A,]2 B,2 [A,C]2 | [E,C]2 [F,C]2 [C,C]4 | [F,C]2 [A,C]2 [F,C]2 [E,C]2 | %3
 [D,D]2 [D,D]2 [C,G,]4 | [F,A,]2 (CB,) [D,A,]2 (B,A,) | [C,G,]2 [C,C]2 [F,C]4 | %6
 [^C,A,]2 [D,F,]2 [=C,G,]2 (A,B,) | [C,C]2 (CB,) [F,A,]4 |] %8
V:4
 x4 B,2 x2 | x8 | x8 | x8 | x2 C,2 x B,,2 x | x8 | x6 F,2 | x2 C,2 x4 |] %8

